X: 1
T: Ballydesmond March, The
M: 4/4
L: 1/8
R: march
K: Gmaj
|: A2 |\ 
B2 AB cB AF | G2 B2 D2 EF | G2 AB cB AG | F2 D2 D2 dc |
B2 BA G2 AB | c2 cd e2 dc | B2 Bd A2 FA | G2 G2 G2 :|
|: B2 |\ 
d2 df g2 dB | c2 cB c2 AD | G2 cA BG AF | D2 D2 D2 GF |
ECEG c2 dc | BG DG B2 dc | BG Bd A2 FA | G2 G2 G2 :|
